;FLAVOR:Marlin
;TIME:18074
;Filament used: 7.80517m
;Layer height: 0.1
;MINX:27.371
;MINY:84.164
;MINZ:0.3
;MAXX:192.629
;MAXY:135.836
;MAXZ:18.6
;Generated with Cura_SteamEngine 4.2.1
M140 S70
M105
M190 S70
M104 S220
M105
M109 S220
M82 ;absolute extrusion mode
G21 ;metric values
G90 ;absolute positioning
M82 ;set extruder to absolute mode
M107 ;start with the fan off
G28 X0 Y0 ;move X/Y to min endstops
G28 Z0 ;move Z to min endstops
G1 Z15.0 F9000 ;move the platform down 15mm
G92 E0 ;zero the extruded length
G1 F200 E3 ;extrude 3mm of feed stock
G92 E0 ;zero the extruded length again
G1 F9000
M280 P0 S160 ; BLTouch alarm release
G4 P100 ; delay for BLTouch
G28 ; home
G29 ; auto bed leveling
M117 Printing...
G92 E0
G92 E0
G1 F3600 E-10
;LAYER_COUNT:184
;LAYER:0
M107
G0 F9450 X35.367 Y85.58 Z0.3
;TYPE:SKIRT
G1 F3600 E0
G1 F2700 X35.609 Y85.496 E0.01278
G1 X35.948 Y85.393 E0.03046
G1 X36.442 Y85.285 E0.05568
G1 X36.766 Y85.257 E0.07191
G1 X37.281 Y85.239 E0.09762
G1 X37.345 Y85.237 E0.10081
G1 X109.214 Y84.164 E3.68677
G1 X110.776 Y84.164 E3.7647
G1 X172.385 Y85.093 E6.83873
G1 X182.453 Y85.235 E7.34108
G1 X182.499 Y85.236 E7.34337
G1 X183.2 Y85.256 E7.37836
G1 X183.703 Y85.311 E7.40361
G1 X183.997 Y85.381 E7.41868
G1 X184.343 Y85.481 E7.43665
G1 X184.817 Y85.659 E7.46191
G1 X185.256 Y85.91 E7.48714
G1 X185.542 Y86.13 E7.50514
G1 X185.707 Y86.272 E7.516
G1 X185.809 Y86.362 E7.52279
G1 X186.017 Y86.557 E7.53701
G1 X186.259 Y86.81 E7.55448
G1 X186.426 Y87.005 E7.56729
G1 X188.226 Y89.069 E7.70392
G1 X190.895 Y91.93 E7.89912
G1 X191.714 Y92.772 E7.95773
G1 X192.037 Y93.161 E7.98295
G1 X192.294 Y93.596 E8.00816
G1 X192.48 Y94.067 E8.03342
G1 X192.589 Y94.56 E8.05861
G1 X192.62 Y94.951 E8.07818
G1 X192.629 Y95.509 E8.10602
G1 X192.629 Y122.724 E9.46379
G1 X192.619 Y123.422 E9.49861
G1 X192.572 Y123.925 E9.52382
G1 X192.446 Y124.415 E9.54906
G1 X192.244 Y124.879 E9.57431
G1 X191.945 Y125.341 E9.60176
G1 X191.472 Y125.949 E9.64019
G1 X189.817 Y128.124 E9.77655
G1 X188.199 Y130.38 E9.91505
G1 X187.217 Y131.818 E10.00193
G1 X186.49 Y132.903 E10.06709
G1 X186.176 Y133.299 E10.0923
G1 X185.954 Y133.516 E10.10779
G1 X185.735 Y133.71 E10.12238
G1 X185.657 Y133.777 E10.12751
G1 X185.504 Y133.904 E10.13743
G1 X185.091 Y134.195 E10.16264
G1 X184.637 Y134.418 E10.18787
G1 X184.39 Y134.504 E10.20092
G1 X184.051 Y134.607 E10.2186
G1 X183.557 Y134.715 E10.24383
G1 X183.233 Y134.743 E10.26005
G1 X182.718 Y134.761 E10.28576
G1 X182.654 Y134.763 E10.28895
G1 X110.784 Y135.836 E13.87496
G1 X109.222 Y135.836 E13.95289
G1 X47.613 Y134.907 E17.02693
G1 X37.548 Y134.765 E17.52912
G1 X37.502 Y134.764 E17.53142
G1 X36.798 Y134.744 E17.56655
G1 X36.295 Y134.689 E17.5918
G1 X35.998 Y134.618 E17.60703
G1 X35.653 Y134.518 E17.62495
G1 X35.18 Y134.34 E17.65017
G1 X34.741 Y134.089 E17.6754
G1 X34.455 Y133.869 E17.6934
G1 X34.303 Y133.738 E17.70341
G1 X34.206 Y133.651 E17.70991
G1 X33.974 Y133.434 E17.72576
G1 X33.633 Y133.061 E17.75097
G1 X33.278 Y132.488 E17.7846
G1 X32.672 Y131.232 E17.85418
G1 X31.446 Y128.774 E17.99121
G1 X30.153 Y126.356 E18.12801
G1 X28.237 Y123.046 E18.31882
G1 X27.847 Y122.403 E18.35634
G1 X27.62 Y121.951 E18.38157
G1 X27.466 Y121.469 E18.40682
G1 X27.384 Y120.811 E18.4399
G1 X27.372 Y120.248 E18.46799
G1 X27.371 Y120.18 E18.47139
G1 X27.371 Y100.181 E19.46914
G1 X27.381 Y99.483 E19.50397
G1 X27.428 Y98.98 E19.52917
G1 X27.554 Y98.49 E19.55441
G1 X27.805 Y97.938 E19.58467
G1 X28.217 Y97.219 E19.62601
G1 X28.243 Y97.173 E19.62864
G1 X28.869 Y96.121 E19.68972
G1 X30.196 Y93.742 E19.82562
G1 X31.465 Y91.308 E19.96257
G1 X32.663 Y88.841 E20.09939
G1 X33.212 Y87.643 E20.16514
G1 X33.23 Y87.604 E20.16728
G1 X33.276 Y87.507 E20.17264
G1 X33.528 Y87.069 E20.19785
G1 X33.846 Y86.675 E20.22311
G1 X34.052 Y86.477 E20.23736
G1 X34.279 Y86.277 E20.25246
G1 X34.354 Y86.213 E20.25738
G1 X34.499 Y86.093 E20.26677
G1 X34.913 Y85.802 E20.29201
G1 X35.367 Y85.58 E20.31723
G1 F3600 E10.31723
G0 F9450 X34.154 Y98.711
G0 X34.154 Y99.577
;TYPE:SUPPORT
G1 F3600 E20.31723
G1 F2700 X34.153 Y120.686 E21.29664
G1 X30.998 Y120.687 E21.44302
G1 X30.97 Y120.659 E21.44486
G1 X30.771 Y120.659 E21.45409
G1 X30.771 Y99.603 E22.43105
G1 X30.971 Y99.603 E22.44033
G1 X30.998 Y99.576 E22.4421
G1 X34.154 Y99.577 E22.58853
G0 F9450 X33.952 Y101.346
G1 F2700 X30.97 Y101.346 E22.72689
G0 F9450 X32.004 Y99.777
G1 F2700 X32.004 Y120.487 E23.68779
G0 F9450 X30.97 Y120.015
G1 F2700 X33.952 Y120.015 E23.82615
G0 F9450 X33.952 Y117.348
G1 F2700 X30.97 Y117.348 E23.96451
G0 F9450 X30.97 Y114.681
G1 F2700 X33.952 Y114.681 E24.10287
G0 F9450 X33.952 Y112.014
G1 F2700 X30.97 Y112.014 E24.24122
G0 F9450 X30.97 Y109.347
G1 F2700 X33.952 Y109.347 E24.37958
G0 F9450 X33.952 Y106.68
G1 F2700 X30.97 Y106.68 E24.51794
G0 F9450 X30.97 Y104.013
G1 F2700 X33.952 Y104.013 E24.6563
G1 F3600 E14.6563
G0 F9450 X35.019 Y104.013
G0 X35.38 Y89.22
G0 X36.237 Y87.943
G0 X109.997 Y86.688
G0 X183.212 Y87.782
G0 X184.453 Y88.586
G0 X184.979 Y95.052
G0 X185.845 Y95.052
G1 F3600 E24.6563
G1 F2700 X188.035 Y95.051 E24.75791
G1 X188.065 Y95.081 E24.75988
G1 X189.229 Y95.081 E24.81389
G1 X189.229 Y123.302 E26.12328
G1 X188.064 Y123.302 E26.17733
G1 X188.035 Y123.331 E26.17924
G1 X185.844 Y123.33 E26.2809
G1 X185.845 Y95.052 E27.59293
G0 F9450 X186.69 Y95.251
G1 F2700 X186.69 Y123.13 E28.88646
G0 F9450 X186.045 Y122.682
G1 F2700 X189.029 Y122.682 E29.02491
G0 F9450 X189.029 Y120.015
G1 F2700 X186.045 Y120.015 E29.16336
G0 F9450 X186.045 Y117.348
G1 F2700 X189.029 Y117.348 E29.30182
G0 F9450 X189.029 Y114.681
G1 F2700 X186.045 Y114.681 E29.44027
G0 F9450 X186.045 Y112.014
G1 F2700 X189.029 Y112.014 E29.57872
G0 F9450 X189.029 Y109.347
G1 F2700 X186.045 Y109.347 E29.71717
G0 F9450 X186.045 Y106.68
G1 F2700 X189.029 Y106.68 E29.85562
G0 F9450 X189.029 Y104.013
G1 F2700 X186.045 Y104.013 E29.99407
G0 F9450 X186.045 Y101.346
G1 F2700 X189.029 Y101.346 E30.13252
G0 F9450 X189.029 Y98.679
G1 F2700 X186.045 Y98.679 E30.27097
G0 F9450 X186.045 Y96.012
G1 F2700 X189.029 Y96.012 E30.40943
G1 F3600 E20.40943
;MESH:Cessna_Dome_Light_4.STL
G0 F9450 X190.094 Y96.012
G0 X190.09 Y94.724
G0 X184.992 Y94.199
G0 X184.619 Y96.011
G0 X183.354 Y96.012
G0 X47.671 Y131.008
G0 X47.67 Y131.107
;TYPE:WALL-INNER
G1 F3600 E30.40943
G1 F2700 X36.97 Y130.956 E30.90593
G1 X36.838 Y130.916 E30.91233
G1 X36.687 Y130.779 E30.92179
G1 X36.645 Y130.617 E30.92956
G1 X36.644 Y89.385 E32.84263
G1 X36.694 Y89.201 E32.85148
G1 X36.826 Y89.087 E32.85957
G1 X36.972 Y89.044 E32.86664
G1 X42.737 Y88.957 E33.13415
G1 X109.999 Y87.953 E36.25531
G1 X172.328 Y88.893 E39.14758
G1 X183.029 Y89.044 E39.64413
G1 X183.161 Y89.084 E39.65053
G1 X183.313 Y89.222 E39.66005
G1 X183.354 Y89.382 E39.66772
G1 X183.355 Y130.615 E41.58084
G1 X183.305 Y130.799 E41.58969
G1 X183.173 Y130.913 E41.59778
G1 X183.027 Y130.956 E41.60484
G1 X177.262 Y131.043 E41.87236
G1 X109.999 Y132.047 E44.99357
G1 X47.67 Y131.107 E47.88583
G0 F9450 X47.664 Y131.507
;TYPE:WALL-OUTER
G1 F2700 X36.911 Y131.355 E48.38479
G1 X36.635 Y131.273 E48.39815
G1 X36.33 Y130.994 E48.41733
G1 X36.245 Y130.668 E48.43296
G1 X36.244 Y89.331 E50.35091
G1 X36.34 Y88.978 E50.36789
G1 X36.63 Y88.729 E50.38562
G1 X36.912 Y88.645 E50.39927
G1 X42.731 Y88.557 E50.66929
G1 X109.999 Y87.553 E53.79074
G1 X172.334 Y88.493 E56.68328
G1 X183.088 Y88.645 E57.18229
G1 X183.364 Y88.727 E57.19565
G1 X183.67 Y89.007 E57.21489
G1 X183.754 Y89.332 E57.23047
G1 X183.755 Y130.669 E59.14842
G1 X183.659 Y131.022 E59.16539
G1 X183.369 Y131.271 E59.18312
G1 X183.087 Y131.355 E59.19678
G1 X177.268 Y131.443 E59.4668
G1 X109.999 Y132.447 E62.58828
G1 X47.664 Y131.507 E65.48083
G0 F9450 X47.465 Y131.505
G0 X47.676 Y130.717
;TYPE:SKIN
G1 F2700 X37.035 Y130.566 E65.9746
G1 X37.034 Y89.434 E67.88303
G1 X42.743 Y89.347 E68.14795
G1 X109.999 Y88.343 E71.26883
G1 X172.322 Y89.283 E74.16082
G1 X182.964 Y89.434 E74.65463
G1 X182.965 Y130.565 E76.56303
G1 X177.256 Y130.653 E76.82794
G1 X109.999 Y131.657 E79.94887
G1 X47.676 Y130.717 E82.84086
G0 F9450 X37.214 Y129.986
G1 F2700 X37.62 Y130.393 E82.86753
G0 F9450 X38.194 Y130.401
G1 F2700 X37.214 Y129.421 E82.93184
G0 F9450 X37.214 Y128.855
G1 F2700 X38.768 Y130.409 E83.0338
G0 F9450 X39.342 Y130.417
G1 F2700 X37.214 Y128.289 E83.17344
G0 F9450 X37.214 Y127.723
G1 F2700 X39.916 Y130.425 E83.35073
G0 F9450 X40.489 Y130.433
G1 F2700 X37.214 Y127.158 E83.56563
G0 F9450 X37.214 Y126.592
G1 F2700 X41.063 Y130.442 E83.81822
G0 F9450 X41.637 Y130.449
G1 F2700 X37.214 Y126.026 E84.10844
G0 F9450 X37.214 Y125.461
G1 F2700 X42.211 Y130.458 E84.43632
G0 F9450 X42.784 Y130.466
G1 F2700 X37.214 Y124.895 E84.80184
G0 F9450 X37.214 Y124.329
G1 F2700 X43.359 Y130.474 E85.20505
G0 F9450 X43.932 Y130.482
G1 F2700 X37.214 Y123.764 E85.64587
G0 F9450 X37.214 Y123.198
G1 F2700 X44.506 Y130.49 E86.12434
G0 F9450 X45.08 Y130.498
G1 F2700 X37.214 Y122.632 E86.64048
G0 F9450 X37.214 Y122.067
G1 F2700 X45.654 Y130.507 E87.19428
G0 F9450 X46.227 Y130.514
G1 F2700 X37.214 Y121.501 E87.78569
G0 F9450 X37.214 Y120.935
G1 F2700 X46.801 Y130.523 E88.41478
G0 F9450 X47.375 Y130.531
G1 F2700 X37.214 Y120.37 E89.08151
G0 F9450 X37.214 Y119.804
G1 F2700 X47.949 Y130.539 E89.78591
G0 F9450 X48.524 Y130.548
G1 F2700 X37.214 Y119.238 E90.52803
G0 F9450 X37.214 Y118.673
G1 F2700 X49.098 Y130.557 E91.30782
G0 F9450 X49.672 Y130.565
G1 F2700 X37.214 Y118.107 E92.12527
G0 F9450 X37.214 Y117.541
G1 F2700 X50.247 Y130.574 E92.98045
G0 F9450 X50.821 Y130.583
G1 F2700 X37.214 Y116.975 E93.87332
G0 F9450 X37.214 Y116.41
G1 F2700 X51.396 Y130.592 E94.8039
G0 F9450 X51.97 Y130.6
G1 F2700 X37.214 Y115.844 E95.77214
G0 F9450 X37.214 Y115.278
G1 F2700 X52.544 Y130.608 E96.77804
G0 F9450 X53.119 Y130.618
G1 F2700 X37.214 Y114.713 E97.82167
G0 F9450 X37.214 Y114.147
G1 F2700 X53.693 Y130.626 E98.90296
G0 F9450 X54.267 Y130.635
G1 F2700 X37.214 Y113.581 E100.02195
G0 F9450 X37.214 Y113.016
G1 F2700 X54.841 Y130.643 E101.17858
G0 F9450 X55.416 Y130.652
G1 F2700 X37.214 Y112.45 E102.37293
G0 F9450 X37.214 Y111.884
G1 F2700 X55.99 Y130.661 E103.60498
G0 F9450 X56.565 Y130.669
G1 F2700 X37.214 Y111.319 E104.87469
G0 F9450 X37.214 Y110.753
G1 F2700 X57.139 Y130.678 E106.1821
G0 F9450 X57.714 Y130.687
G1 F2700 X37.214 Y110.187 E107.52724
G0 F9450 X37.213 Y109.621
G1 F2700 X58.288 Y130.695 E108.91007
G0 F9450 X58.862 Y130.704
G1 F2700 X37.213 Y109.055 E110.3306
G0 F9450 X37.213 Y108.489
G1 F2700 X59.436 Y130.712 E111.7888
G0 F9450 X60.011 Y130.722
G1 F2700 X37.213 Y107.924 E113.28473
G0 F9450 X37.213 Y107.358
G1 F2700 X60.585 Y130.73 E114.81832
G0 F9450 X61.159 Y130.739
G1 F2700 X37.213 Y106.792 E116.3896
G0 F9450 X37.213 Y106.227
G1 F2700 X61.733 Y130.747 E117.99852
G0 F9450 X62.308 Y130.756
G1 F2700 X37.213 Y105.661 E119.64517
G0 F9450 X37.213 Y105.095
G1 F2700 X62.883 Y130.765 E121.32954
G0 F9450 X63.457 Y130.773
G1 F2700 X37.213 Y104.53 E123.05155
G0 F9450 X37.213 Y103.964
G1 F2700 X64.032 Y130.782 E124.81129
G0 F9450 X64.606 Y130.791
G1 F2700 X37.213 Y103.398 E126.60872
G0 F9450 X37.213 Y102.833
G1 F2700 X65.18 Y130.799 E128.44378
G0 F9450 X65.754 Y130.808
G1 F2700 X37.213 Y102.267 E130.31654
G0 F9450 X37.213 Y101.701
G1 F2700 X66.329 Y130.817 E132.22704
G0 F9450 X66.903 Y130.826
G1 F2700 X37.213 Y101.136 E134.17519
G0 F9450 X37.213 Y100.57
G1 F2700 X67.477 Y130.834 E136.16101
G0 F9450 X68.051 Y130.843
G1 F2700 X37.213 Y100.004 E138.18452
G0 F9450 X37.213 Y99.439
G1 F2700 X68.626 Y130.852 E140.24574
G0 F9450 X69.201 Y130.86
G1 F2700 X37.213 Y98.873 E142.34464
G0 F9450 X37.213 Y98.307
G1 F2700 X69.775 Y130.869 E144.48125
G0 F9450 X70.349 Y130.877
G1 F2700 X37.213 Y97.741 E146.65552
G0 F9450 X37.213 Y97.176
G1 F2700 X70.924 Y130.886 E148.86748
G0 F9450 X71.498 Y130.895
G1 F2700 X37.213 Y96.61 E151.11715
G0 F9450 X37.213 Y96.044
G1 F2700 X72.072 Y130.903 E153.40447
G0 F9450 X72.646 Y130.912
G1 F2700 X37.213 Y95.479 E155.72946
G0 F9450 X37.213 Y94.913
G1 F2700 X73.221 Y130.921 E158.09218
G0 F9450 X73.795 Y130.93
G1 F2700 X37.213 Y94.347 E160.4926
G0 F9450 X37.213 Y93.782
G1 F2700 X74.369 Y130.938 E162.93065
G0 F9450 X74.944 Y130.946
G1 F2700 X37.213 Y93.216 E165.40639
G0 F9450 X37.213 Y92.65
G1 F2700 X75.519 Y130.956 E167.9199
G0 F9450 X76.093 Y130.964
G1 F2700 X37.213 Y92.085 E170.47104
G0 F9450 X37.213 Y91.519
G1 F2700 X76.667 Y130.973 E173.05987
G0 F9450 X77.241 Y130.981
G1 F2700 X37.213 Y90.953 E175.68637
G0 F9450 X37.213 Y90.388
G1 F2700 X77.816 Y130.99 E178.35056
G0 F9450 X78.39 Y130.999
G1 F2700 X37.213 Y89.822 E181.05245
G0 F9450 X37.562 Y89.605
G1 F2700 X78.964 Y131.007 E183.76911
G0 F9450 X79.538 Y131.016
G1 F2700 X38.119 Y89.596 E186.48691
G0 F9450 X38.676 Y89.588
G1 F2700 X80.113 Y131.025 E189.20587
G0 F9450 X80.687 Y131.033
G1 F2700 X39.233 Y89.579 E191.92593
G0 F9450 X39.791 Y89.572
G1 F2700 X81.262 Y131.042 E194.64708
G0 F9450 X81.836 Y131.05
G1 F2700 X40.348 Y89.563 E197.36935
G0 F9450 X40.906 Y89.555
G1 F2700 X82.411 Y131.06 E200.09276
G0 F9450 X82.985 Y131.068
G1 F2700 X41.463 Y89.546 E202.81729
G0 F9450 X42.02 Y89.538
G1 F2700 X83.559 Y131.077 E205.54294
G0 F9450 X84.134 Y131.086
G1 F2700 X42.577 Y89.529 E208.26976
G0 F9450 X43.134 Y89.521
G1 F2700 X84.708 Y131.094 E210.99767
G0 F9450 X85.282 Y131.103
G1 F2700 X43.692 Y89.513 E213.72666
G0 F9450 X44.25 Y89.504
G1 F2700 X85.856 Y131.111 E216.45674
G0 F9450 X86.431 Y131.12
G1 F2700 X44.807 Y89.496 E219.18796
G0 F9450 X45.364 Y89.487
G1 F2700 X87.005 Y131.129 E221.92033
G0 F9450 X87.58 Y131.137
G1 F2700 X45.921 Y89.479 E224.65381
G0 F9450 X46.479 Y89.471
G1 F2700 X88.154 Y131.146 E227.38838
G0 F9450 X88.729 Y131.155
G1 F2700 X47.036 Y89.463 E230.1241
G0 F9450 X47.593 Y89.454
G1 F2700 X89.303 Y131.164 E232.86096
G0 F9450 X89.877 Y131.172
G1 F2700 X48.151 Y89.446 E235.59888
G0 F9450 X48.709 Y89.438
G1 F2700 X90.451 Y131.181 E238.33788
G0 F9450 X91.026 Y131.19
G1 F2700 X49.266 Y89.429 E241.07806
G0 F9450 X49.823 Y89.421
G1 F2700 X91.6 Y131.198 E243.81932
G0 F9450 X92.174 Y131.207
G1 F2700 X50.38 Y89.412 E246.56173
G0 F9450 X50.938 Y89.405
G1 F2700 X92.749 Y131.215 E249.30519
G0 F9450 X93.323 Y131.224
G1 F2700 X51.495 Y89.396 E252.04979
G0 F9450 X52.052 Y89.388
G1 F2700 X93.898 Y131.233 E254.79555
G0 F9450 X94.472 Y131.241
G1 F2700 X52.61 Y89.379 E257.54239
G0 F9450 X53.168 Y89.371
G1 F2700 X95.046 Y131.25 E260.29031
G0 F9450 X95.621 Y131.259
G1 F2700 X53.725 Y89.363 E263.03938
G0 F9450 X54.282 Y89.354
G1 F2700 X96.195 Y131.268 E265.7896
G0 F9450 X96.769 Y131.276
G1 F2700 X54.839 Y89.346 E268.5409
G0 F9450 X55.397 Y89.338
G1 F2700 X97.343 Y131.284 E271.29325
G0 F9450 X97.918 Y131.294
G1 F2700 X55.954 Y89.33 E274.04678
G0 F9450 X56.511 Y89.321
G1 F2700 X98.492 Y131.302 E276.80143
G0 F9450 X99.067 Y131.311
G1 F2700 X57.069 Y89.313 E279.55719
G0 F9450 X57.627 Y89.305
G1 F2700 X99.641 Y131.319 E282.31401
G0 F9450 X100.216 Y131.328
G1 F2700 X58.184 Y89.296 E285.072
G0 F9450 X58.741 Y89.288
G1 F2700 X100.79 Y131.337 E287.83111
G0 F9450 X101.364 Y131.345
G1 F2700 X59.298 Y89.28 E290.5913
G0 F9450 X59.855 Y89.271
G1 F2700 X101.938 Y131.354 E293.35264
G0 F9450 X102.513 Y131.363
G1 F2700 X60.413 Y89.263 E296.1151
G0 F9450 X60.97 Y89.255
G1 F2700 X103.087 Y131.371 E298.87863
G0 F9450 X103.661 Y131.38
G1 F2700 X61.528 Y89.246 E301.64329
G0 F9450 X62.085 Y89.238
G1 F2700 X104.236 Y131.389 E304.40909
G0 F9450 X104.81 Y131.398
G1 F2700 X62.643 Y89.23 E307.17597
G0 F9450 X63.2 Y89.222
G1 F2700 X105.385 Y131.406 E309.94397
G0 F9450 X105.959 Y131.415
G1 F2700 X63.757 Y89.213 E312.71312
G0 F9450 X64.314 Y89.205
G1 F2700 X106.534 Y131.424 E315.48342
